X: 2
T: The Shetland Fiddler
R: reel
M: 4/4
L: 1/8
K: Dmaj
|:A|d2 fd A2 fe|defg afdf|e2 ge B2 ed|cdef gece|
d2 fd A2 fe| defg afdg|fafd fafd|Bgec d2:|
|:eAfA gA f2|faaf gfed|cAeA fA e2|efed cABc|
dAeA fA g2|faaf gfed|fafd fafd|Bgec d2:|


Tune 97	Setting 97

